Yosa-Max-Dark/places/16x16/folder-script.svg

<?xml version="1.0" encoding="UTF-8"?>
<svg id="svg6" version="1.1" viewBox="0 0 16 16" xmlns="http://www.w3.org/2000/svg">
 <defs id="defs3051">
  <style id="current-color-scheme" type="text/css">.ColorScheme-Text {
        color:#dfdfdf;
      }</style>
 </defs>
 <path id="path4" class="ColorScheme-Text" d="m9.5722656 2.4863281c-0.0681093 0.0276397-0.1237536 0.0807242-0.1523437 0.1484375l-4.3554688 10.302734c-0.0596352 0.14097 0.0054347 0.303646 0.1464844 0.363281l0.7304687 0.308594c0.0344507 0.014651 0.0706746 0.021484 0.1074219 0.021484 0.035401 0 0.0720477-0.005988 0.1054688-0.019531 0.0681093-0.02764 0.1217213-0.082677 0.1503906-0.15039l4.3554685-10.300782c0.059556-0.1409704-0.005514-0.3036459-0.146484-0.3632812l-0.7304689-0.3085938c-0.0676341-0.0286692-0.142749-0.0295136-0.2109375-0.0019531zm-5.0527344 1.90625c-0.0701981-0.0101273-0.1457328 0.0068398-0.2070312 0.0527344l-4.1289062 3.0878906c-0.06993085 0.05227-0.11132812 0.1352229-0.11132812 0.2226563 0 0.0874333 0.041397275 0.1703863 0.11132812 0.2226562l4.1289062 3.0878904c0.0497356 0.037302 0.1082811 0.056641 0.1660156 0.056641 0.0844239 0 0.168248-0.038546 0.2226563-0.111328l0.4746093-0.634766c0.0440335-0.059002 0.0631884-0.132296 0.0527344-0.205078-0.0105332-0.072782-0.0505317-0.13956-0.109375-0.1835938l-2.984375-2.2324218 2.984375-2.2324219c0.0588433-0.0440335 0.0988418-0.1088587 0.109375-0.1816406 0.010454-0.072782-0.0086217-0.1480296-0.0527344-0.2070313l-0.4746093-0.6328125c-0.0458946-0.0612984-0.1114425-0.0992477-0.1816407-0.109375zm6.6874998 0c-0.070188 0.0101273-0.137739 0.0481162-0.183593 0.109375l-0.47461 0.6328125c-0.044033 0.0589225-0.063188 0.1342493-0.052734 0.2070313 0.010533 0.0727027 0.050452 0.1376071 0.109375 0.1816406l2.986328 2.2324219-2.986328 2.2324218c-0.058923 0.0440338-0.098842 0.1108908-0.109375 0.1835938-0.010454 0.072782 0.008621 0.146156 0.052734 0.205078l0.47461 0.634766c0.054487 0.072782 0.138232 0.111328 0.222656 0.111328 0.057734 0 0.116201-0.019418 0.166015-0.056641l4.13086-3.0878904c0.069931-0.0522699 0.111328-0.1352229 0.111328-0.2226562 0-0.0874334-0.041397-0.1703863-0.111328-0.2226563l-4.13086-3.0878906c-0.061298-0.045855-0.13489-0.0628617-0.205078-0.0527344z" style="fill:#dfdfdf"/>
</svg>

<?xml version="1.0" encoding="UTF-8" standalone="no"?>
<svg
   xmlns:dc="http://purl.org/dc/elements/1.1/"
   xmlns:cc="http://creativecommons.org/ns#"
   xmlns:rdf="http://www.w3.org/1999/02/22-rdf-syntax-ns#"
   xmlns:svg="http://www.w3.org/2000/svg"
   xmlns="http://www.w3.org/2000/svg"
   xmlns:sodipodi="http://sodipodi.sourceforge.net/DTD/sodipodi-0.dtd"
   xmlns:inkscape="http://www.inkscape.org/namespaces/inkscape"
   viewBox="0 0 16 16"
   version="1.1"
   id="svg6"
   sodipodi:docname="folder-script.svg"
   inkscape:version="0.92.2 5c3e80d, 2017-08-06">
  <metadata
     id="metadata10">
    <rdf:RDF>
      <cc:Work
         rdf:about="">
        <dc:format>image/svg+xml</dc:format>
        <dc:type
           rdf:resource="http://purl.org/dc/dcmitype/StillImage" />
      </cc:Work>
    </rdf:RDF>
  </metadata>
  <sodipodi:namedview
     pagecolor="#ffffff"
     bordercolor="#666666"
     borderopacity="1"
     objecttolerance="10"
     gridtolerance="10"
     guidetolerance="10"
     inkscape:pageopacity="0"
     inkscape:pageshadow="2"
     inkscape:window-width="760"
     inkscape:window-height="480"
     id="namedview8"
     showgrid="false"
     inkscape:zoom="18.264648"
     inkscape:cx="0.66342298"
     inkscape:cy="8"
     inkscape:window-x="0"
     inkscape:window-y="0"
     inkscape:window-maximized="0"
     inkscape:current-layer="svg6" />
  <defs
     id="defs3051">
    <style
       type="text/css"
       id="current-color-scheme">
      .ColorScheme-Text {
        color:#dfdfdf;
      }
      </style>
  </defs>
  <path
     style="fill:#dfdfdf;fill-opacity:1;stroke:none"
     class="ColorScheme-Text"
     d="M 9.5722656 2.4863281 C 9.5041563 2.5139678 9.448512 2.5670523 9.4199219 2.6347656 L 5.0644531 12.9375 C 5.0048179 13.07847 5.0698878 13.241146 5.2109375 13.300781 L 5.9414062 13.609375 C 5.9758569 13.624026 6.0120808 13.630859 6.0488281 13.630859 C 6.0842291 13.630859 6.1208758 13.624871 6.1542969 13.611328 C 6.2224062 13.583688 6.2760182 13.528651 6.3046875 13.460938 L 10.660156 3.1601562 C 10.719712 3.0191858 10.654642 2.8565103 10.513672 2.796875 L 9.7832031 2.4882812 C 9.715569 2.459612 9.6404541 2.4587676 9.5722656 2.4863281 z M 4.5195312 4.3925781 C 4.4493331 4.3824508 4.3737984 4.3994179 4.3125 4.4453125 L 0.18359375 7.5332031 C 0.1136629 7.5854731 0.072265625 7.668426 0.072265625 7.7558594 C 0.072265625 7.8432927 0.1136629 7.9262457 0.18359375 7.9785156 L 4.3125 11.066406 C 4.3622356 11.103708 4.4207811 11.123047 4.4785156 11.123047 C 4.5629395 11.123047 4.6467636 11.084501 4.7011719 11.011719 L 5.1757812 10.376953 C 5.2198147 10.317951 5.2389696 10.244657 5.2285156 10.171875 C 5.2179824 10.099093 5.1779839 10.032315 5.1191406 9.9882812 L 2.1347656 7.7558594 L 5.1191406 5.5234375 C 5.1779839 5.479404 5.2179824 5.4145788 5.2285156 5.3417969 C 5.2389696 5.2690149 5.2198939 5.1937673 5.1757812 5.1347656 L 4.7011719 4.5019531 C 4.6552773 4.4406547 4.5897294 4.4027054 4.5195312 4.3925781 z M 11.207031 4.3925781 C 11.136843 4.4027054 11.069292 4.4406943 11.023438 4.5019531 L 10.548828 5.1347656 C 10.504795 5.1936881 10.48564 5.2690149 10.496094 5.3417969 C 10.506627 5.4144996 10.546546 5.479404 10.605469 5.5234375 L 13.591797 7.7558594 L 10.605469 9.9882812 C 10.546546 10.032315 10.506627 10.099172 10.496094 10.171875 C 10.48564 10.244657 10.504715 10.318031 10.548828 10.376953 L 11.023438 11.011719 C 11.077925 11.084501 11.16167 11.123047 11.246094 11.123047 C 11.303828 11.123047 11.362295 11.103629 11.412109 11.066406 L 15.542969 7.9785156 C 15.6129 7.9262457 15.654297 7.8432927 15.654297 7.7558594 C 15.654297 7.668426 15.6129 7.5854731 15.542969 7.5332031 L 11.412109 4.4453125 C 11.350811 4.3994575 11.277219 4.3824508 11.207031 4.3925781 z "
     id="path4" />
</svg>
